!! 00048] TT[KA
!! NN
!!!OTL: Xiao nu xu
!!!ARE: Asia, China,ˇGansu, Pingliang
!! Ethnic Group: Han
!! I, 130, 2)
!!!SCT: C0039
!!!YEM: Copyright 1995, estate of Helmut Schaffrath.
**kern
*ICvox
*Ivox
*M2/4
*k[f#c#]
*D:
{4b
16b
16dd
16b
16a
=1
8f#
16a
16f#
8.e
16f#
=2
4b
16b
16dd
16b
16a
=3
4f#
4f#}
=4
{8f#
16f#
16a
8b
16b
16a
=5
16f#
16f#
16a
16b
4f#
=6
8a
16a
16f#
8.e
16d
=7
2e}
=8
{8f#
16f#
16a
8b
16b
16a
=9
16f#
16f#
16a
16b
4f#
=10
8a
16a
16f#
8.e
16d
=11
2e}
==
!!!AGN: Xiaodiao. FunÅ ku
!! 
!!!ONB: ESAC (Essen Associative Code) Database: CHINA
!!!AMT: simple duple
!!!AIN: vox
!!!EED: Helmut Schaffrath
!!!EEV: 1.0
*-
